build/svg/chart2/res/typestock_16.svg

<svg viewBox="0 0 16 16" xmlns="http://www.w3.org/2000/svg"><path d="m2 2v11h-1v1h1v1h1v-1h7 2 2v-1h-2v-8h-2v8h-1v-4h-2v4h-1v-6h-2v6h-1v-11z" fill="#232629"/><path d="m10 1v3h1v-1h1v-1h-1v-1zm-6 2v3h1v-1h1v-1h-1v-1zm3 2v3h1v-1h1v-1h-1v-1z" fill="#762572"/></svg>

<svg viewBox="0 0 16 16" xmlns="http://www.w3.org/2000/svg"><path d="M2 2v11H1v1h1v1h1v-1h11v-1h-2V5h-2v8H9V9H7v4H6V7H4v6H3V2z" fill="#232629"/><path d="M10 1v3h1V3h1V2h-1V1zM4 3v3h1V5h1V4H5V3zm3 2v3h1V7h1V6H8V5z" fill="#762572"/></svg>
